logos/team/Logo_Large_White.svg

<svg xmlns="http://www.w3.org/2000/svg" viewBox="0 -0.5 80 42" shape-rendering="crispEdges"><path stroke="#EAEAEA" d="M0 0h3m1 0h3m1 0h3m1 0h5M1 1h1m2 0h1m3 0h1m1 0h1m1 0h1m1 0h1m1 0h1M1 2h1m2 0h2m2 0h3m1 0h1m1 0h1m1 0h1M1 3h1m2 0h1m3 0h1m1 0h1m1 0h1m1 0h1m1 0h1M1 4h1m2 0h3m1 0h1m1 0h1m1 0h1m1 0h1m1 0h1M4 7h8m20 0h12m8 0h12m4 0h12M4 8h8m20 0h12m8 0h12m4 0h12M4 9h8m20 0h12m8 0h12m4 0h12M4 10h8m20 0h12m8 0h12m4 0h12M0 11h4m8 0h4m16 0h4m8 0h4m8 0h4m12 0h4M0 12h4m8 0h4m16 0h4m8 0h4m8 0h4m12 0h4M0 13h4m8 0h4m16 0h4m8 0h4m8 0h4m12 0h4M0 14h4m8 0h4m16 0h4m8 0h4m8 0h4m12 0h4M0 15h4m8 0h4m16 0h4m8 0h4m8 0h4m12 0h4M0 16h4m8 0h4m16 0h4m8 0h4m8 0h4m12 0h4M0 17h4m8 0h4m16 0h4m8 0h4m8 0h4m12 0h4M0 18h4m8 0h4m16 0h4m8 0h4m8 0h4m12 0h4M4 19h8m8 0h8m4 0h12m12 0h4m12 0h4M4 20h8m8 0h8m4 0h12m12 0h4m12 0h4M4 21h8m8 0h8m4 0h12m12 0h4m12 0h4M4 22h8m8 0h8m4 0h12m12 0h4m12 0h4M0 23h4m8 0h4m16 0h4m8 0h4m8 0h4m12 0h4M0 24h4m8 0h4m16 0h4m8 0h4m8 0h4m12 0h4M0 25h4m8 0h4m16 0h4m8 0h4m8 0h4m12 0h4M0 26h4m8 0h4m16 0h4m8 0h4m8 0h4m12 0h4M0 27h4m8 0h4m16 0h4m8 0h4m8 0h4m12 0h4M0 28h4m8 0h4m16 0h4m8 0h4m8 0h4m12 0h4M0 29h4m8 0h4m16 0h4m8 0h4m8 0h4m12 0h4M0 30h4m8 0h4m16 0h4m8 0h4m8 0h4m12 0h4M4 31h8m20 0h12m8 0h12m8 0h4M4 32h8m20 0h12m8 0h12m8 0h4M4 33h8m20 0h12m8 0h12m8 0h4M4 34h8m20 0h12m8 0h12m8 0h4m-11 3h3m1 0h1m1 0h1m1 0h3m1 0h3m-15 1h1m1 0h1m1 0h1m1 0h1m3 0h1m1 0h1m-13 1h3m1 0h3m3 0h1m1 0h3m-13 1h1m3 0h1m3 0h1m3 0h1m-15 1h3m3 0h1m3 0h1m1 0h3"/></svg>

<svg xmlns="http://www.w3.org/2000/svg" viewBox="0 -0.5 80 43" shape-rendering="crispEdges">
<metadata>Made with Pixels to Svg https://codepen.io/shshaw/pen/XbxvNj</metadata>
<path stroke="#eaeaea" d="M0 0h3M4 0h3M8 0h3M12 0h5M1 1h1M4 1h1M8 1h1M10 1h1M12 1h1M14 1h1M16 1h1M1 2h1M4 2h2M8 2h3M12 2h1M14 2h1M16 2h1M1 3h1M4 3h1M8 3h1M10 3h1M12 3h1M14 3h1M16 3h1M1 4h1M4 4h3M8 4h1M10 4h1M12 4h1M14 4h1M16 4h1M4 7h8M32 7h12M52 7h12M68 7h12M4 8h8M32 8h12M52 8h12M68 8h12M4 9h8M32 9h12M52 9h12M68 9h12M4 10h8M32 10h12M52 10h12M68 10h12M0 11h4M12 11h4M32 11h4M44 11h4M56 11h4M72 11h4M0 12h4M12 12h4M32 12h4M44 12h4M56 12h4M72 12h4M0 13h4M12 13h4M32 13h4M44 13h4M56 13h4M72 13h4M0 14h4M12 14h4M32 14h4M44 14h4M56 14h4M72 14h4M0 15h4M12 15h4M32 15h4M44 15h4M56 15h4M72 15h4M0 16h4M12 16h4M32 16h4M44 16h4M56 16h4M72 16h4M0 17h4M12 17h4M32 17h4M44 17h4M56 17h4M72 17h4M0 18h4M12 18h4M32 18h4M44 18h4M56 18h4M72 18h4M4 19h8M20 19h8M32 19h12M56 19h4M72 19h4M4 20h8M20 20h8M32 20h12M56 20h4M72 20h4M4 21h8M20 21h8M32 21h12M56 21h4M72 21h4M4 22h8M20 22h8M32 22h12M56 22h4M72 22h4M0 23h4M12 23h4M32 23h4M44 23h4M56 23h4M72 23h4M0 24h4M12 24h4M32 24h4M44 24h4M56 24h4M72 24h4M0 25h4M12 25h4M32 25h4M44 25h4M56 25h4M72 25h4M0 26h4M12 26h4M32 26h4M44 26h4M56 26h4M72 26h4M0 27h4M12 27h4M32 27h4M44 27h4M56 27h4M72 27h4M0 28h4M12 28h4M32 28h4M44 28h4M56 28h4M72 28h4M0 29h4M12 29h4M32 29h4M44 29h4M56 29h4M72 29h4M0 30h4M12 30h4M32 30h4M44 30h4M56 30h4M72 30h4M4 31h8M32 31h12M56 31h4M72 31h4M4 32h8M32 32h12M52 32h12M72 32h4M4 33h8M32 33h12M52 33h12M72 33h4M4 34h8M32 34h12M52 34h12M72 34h4M52 35h12M72 35h4M65 38h1M67 38h1M69 38h1M71 38h1M73 38h1M75 38h1M77 38h1M79 38h1M65 39h1M67 39h1M69 39h1M71 39h1M73 39h1M75 39h1M77 39h1M79 39h1M66 40h1M70 40h1M74 40h1M78 40h1M65 41h1M67 41h1M69 41h1M71 41h1M73 41h1M75 41h1M77 41h1M79 41h1M65 42h1M67 42h1M69 42h1M71 42h1M73 42h1M75 42h1M77 42h1M79 42h1" />
</svg>
